!!! OTL: Berkowitz187
!!! Chapter: 1
!!! Section: II
!!! Page: 44
!!! Mode: 
!!! Encoder: DJB
**kern
*staff1
*I"Piano
=1-
*clefF4
*k[b-e-a-d-]
*A-:
*M3/4
8AA-/L
8C/J
4E-\
8r
8E-\
=2
4F\
4E-\
4C/
=3
4.BB-/
8AA-/
4BB-/
=4
2.C/
=5
8D-\L
8F\J
4A-\
8r
8A-\
=6
4B-\
4A-\
4F\
=7
4E-\
4.D-\
8E-\
=8
2.F\
=9
8E-\L
8G\J
4B-\
8r
8B-\
=10
!!linebreak:original
8G\L
8B-\J
4d-\
8c\L
8B-\J
=11
8B-\L
8A-\J
4G\
4F\
=12
2E-\
4E-\
=13
8E-\L
8G\J
4B-\
8r
8E-\
=14
8G\L
8B-\J
4d-\
8c\L
8B-\J
=15
4.A-\
8C/
4E-\
=16
2.AA-/
==
*-
